svg/emoji_u1f375.svg

<svg width="128" height="128" viewBox="0 0 128 128" fill="none" xmlns="http://www.w3.org/2000/svg">
<path d="M100.715 110.779C100.715 119.755 84.2771 127.031 64 127.031C43.723 127.031 27.2852 119.755 27.2852 110.779C27.6155 97.4576 43.723 94.5283 64 94.5283C84.2771 94.5283 101.208 98.5788 100.715 110.779Z" fill="#5F989E" style="fill:#5F989E;fill:color(display-p3 0.3725 0.5961 0.6196);fill-opacity:1;"/>
<path d="M100.715 110.779C100.715 119.755 84.2771 127.031 64 127.031C43.723 127.031 27.2852 119.755 27.2852 110.779C27.6155 97.4576 43.723 94.5283 64 94.5283C84.2771 94.5283 101.208 98.5788 100.715 110.779Z" fill="#9F682F" style="fill:#9F682F;fill:color(display-p3 0.6250 0.4077 0.1849);fill-opacity:1;"/>
<ellipse cx="64" cy="108.609" rx="36.7149" ry="16.2511" fill="#A3C3CB" style="fill:#A3C3CB;fill:color(display-p3 0.6400 0.7634 0.7958);fill-opacity:1;"/>
<ellipse cx="64" cy="108.609" rx="36.7149" ry="16.2511" fill="#7D5124" style="fill:#7D5124;fill:color(display-p3 0.4917 0.3176 0.1393);fill-opacity:1;"/>
<ellipse cx="64.0054" cy="108.609" rx="25.6909" ry="11.3716" fill="#A3C3CB" style="fill:#A3C3CB;fill:color(display-p3 0.6400 0.7634 0.7958);fill-opacity:1;"/>
<ellipse cx="64.0054" cy="108.609" rx="25.6909" ry="11.3716" fill="#744516" style="fill:#744516;fill:color(display-p3 0.4542 0.2719 0.0852);fill-opacity:1;"/>
<path d="M42.2984 103.649C42.2984 103.649 41.8484 107.829 42.5984 109.169C43.3484 110.509 47.2284 114.989 63.7884 115.289C80.3484 115.589 84.9784 110.809 85.5684 109.919C86.1684 109.019 85.5684 104.099 85.5684 104.099L42.2984 103.649Z" fill="#5F989E" style="fill:#5F989E;fill:color(display-p3 0.3725 0.5961 0.6196);fill-opacity:1;"/>
<path d="M64.7699 31.77C38.3399 30.99 25.3799 42.07 25.0799 48.33C24.8599 53.01 25.3799 70.3834 25.8299 79.0334C26.2799 87.6834 27.9199 94.1034 32.5399 99.1734C36.7399 103.783 44.6299 109.323 64.1699 109.473C83.2699 109.623 90.5799 103.053 94.3099 99.3234C98.0399 95.5934 100.28 90.2234 101.17 80.9734C101.97 72.7434 101.77 52.21 101.62 48.48C101.37 42.23 89.9799 32.52 64.7699 31.77Z" fill="#BACDD2" style="fill:#BACDD2;fill:color(display-p3 0.7294 0.8039 0.8235);fill-opacity:1;"/>
<path d="M33.1775 64.8185C28.8937 64.3456 29.6616 82.7289 31.6324 89.8475C33.3163 95.9189 37.1191 100.8 40.2002 99.3895C42.5966 98.2918 38.4422 91.1226 37.3227 83.1089C35.7867 72.0806 37.1839 65.2576 33.1775 64.8185Z" fill="#DCEDF6" style="fill:#DCEDF6;fill:color(display-p3 0.8627 0.9294 0.9647);fill-opacity:1;"/>
<path d="M31.5802 49.63C30.6502 55.65 40.5602 63.88 62.8802 64.08C84.0002 64.27 95.8602 56.12 95.8602 50.38C95.8602 44.36 85.9502 37.51 63.0702 37.41C40.4702 37.32 32.3802 44.42 31.5802 49.63Z" fill="#EEF9FF" style="fill:#EEF9FF;fill:color(display-p3 0.9333 0.9765 1.0000);fill-opacity:1;"/>
<path d="M34.7798 56.4399C39.2798 60.4999 48.5098 63.9599 62.8898 64.0899C76.7298 64.2099 86.5898 60.7499 91.7398 56.7399C89.5598 52.8799 81.6798 48.4699 62.9798 47.9699C45.4698 47.4999 36.8598 53.6199 34.7798 56.4399Z" fill="#7DB240" style="fill:#7DB240;fill:color(display-p3 0.4902 0.6980 0.2510);fill-opacity:1;"/>
<path d="M78.16 62.5701C82.67 61.5501 86.37 60.0901 89.2 58.4401C90.14 57.8901 85.39 51.3101 66.96 50.9401C62.58 50.8501 59.68 51.4401 59.64 52.6101C59.55 55.3901 67.02 54.0101 71.59 56.5001C75.52 58.6301 77.33 60.7501 78.16 62.5701Z" fill="#AAD876" style="fill:#AAD876;fill:color(display-p3 0.6667 0.8471 0.4627);fill-opacity:1;"/>
<path opacity="0.6" d="M61.2001 16C60.7001 15.7 56.8801 17.54 53.3101 19.61C48.4801 22.41 43.8101 26.85 45.1101 34.54C46.6301 43.56 60.2101 46.02 61.1301 45.28C62.0601 44.54 54.6101 37.37 55.5001 30.36C56.4501 22.84 63.2401 17.21 61.2001 16Z" fill="#DCEDF6" style="fill:#DCEDF6;fill:color(display-p3 0.8627 0.9294 0.9647);fill-opacity:1;"/>
<path opacity="0.6" d="M71.2802 2.05988C68.7202 4.89988 76.0702 6.67988 72.9602 12.9799C69.8502 19.2799 60.4502 22.7999 60.4502 31.8699C60.4502 40.9399 71.3702 46.7299 72.5402 45.8099C73.7202 44.8899 70.3202 38.1399 75.7302 31.9599C81.6102 25.2399 87.3202 18.7799 83.8702 9.78988C80.8502 1.89988 72.7902 0.379878 71.2802 2.05988Z" fill="#DCEDF6" style="fill:#DCEDF6;fill:color(display-p3 0.8627 0.9294 0.9647);fill-opacity:1;"/>
</svg>

<?xml version="1.0" encoding="utf-8"?>
<!-- Generator: Adobe Illustrator 25.2.3, SVG Export Plug-In . SVG Version: 6.00 Build 0)  -->
<svg version="1.1" id="Layer_3" xmlns="http://www.w3.org/2000/svg" xmlns:xlink="http://www.w3.org/1999/xlink" x="0px" y="0px"
	 viewBox="0 0 128 128" style="enable-background:new 0 0 128 128;" xml:space="preserve">
<path style="fill:#5F989E;" d="M42.09,113.09c0,0-0.45,4.18,0.3,5.52c0.75,1.34,4.63,5.82,21.19,6.12s21.19-4.48,21.78-5.37
	c0.6-0.9,0-5.82,0-5.82L42.09,113.09z"/>
<path style="fill:#BACDD2;" d="M64.77,31.77c-26.43-0.78-39.39,10.3-39.69,16.56c-0.22,4.68,0.3,32.38,0.75,41.03
	s2.09,15.07,6.71,20.14c4.2,4.61,12.09,10.15,31.63,10.3c19.1,0.15,26.41-6.42,30.14-10.15c3.73-3.73,5.97-9.1,6.86-18.35
	c0.8-8.23,0.6-39.09,0.45-42.82C101.37,42.23,89.98,32.52,64.77,31.77z"/>
<path style="fill:#DCEDF6;" d="M33.43,64.82c-4.63-0.56-3.8,21.21-1.67,29.64c1.82,7.19,5.93,12.97,9.26,11.3
	c2.59-1.3-1.9-9.79-3.11-19.28C36.25,73.42,37.76,65.34,33.43,64.82z"/>
<path style="fill:#EEF9FF;" d="M31.58,49.63c-0.93,6.02,8.98,14.25,31.3,14.45C84,64.27,95.86,56.12,95.86,50.38
	c0-6.02-9.91-12.87-32.79-12.97C40.47,37.32,32.38,44.42,31.58,49.63z"/>
<path style="fill:#7DB240;" d="M34.78,56.44c4.5,4.06,13.73,7.52,28.11,7.65c13.84,0.12,23.7-3.34,28.85-7.35
	c-2.18-3.86-10.06-8.27-28.76-8.77C45.47,47.5,36.86,53.62,34.78,56.44z"/>
<path style="fill:#AAD876;" d="M78.16,62.57c4.51-1.02,8.21-2.48,11.04-4.13c0.94-0.55-3.81-7.13-22.24-7.5
	c-4.38-0.09-7.28,0.5-7.32,1.67c-0.09,2.78,7.38,1.4,11.95,3.89C75.52,58.63,77.33,60.75,78.16,62.57z"/>
<path style="opacity:0.6;fill:#DCEDF6;" d="M61.2,16c-0.5-0.3-4.32,1.54-7.89,3.61c-4.83,2.8-9.5,7.24-8.2,14.93
	c1.52,9.02,15.1,11.48,16.02,10.74c0.93-0.74-6.52-7.91-5.63-14.92C56.45,22.84,63.24,17.21,61.2,16z"/>
<path style="opacity:0.6;fill:#DCEDF6;" d="M71.28,2.06c-2.56,2.84,4.79,4.62,1.68,10.92S60.45,22.8,60.45,31.87
	s10.92,14.86,12.09,13.94c1.18-0.92-2.22-7.67,3.19-13.85c5.88-6.72,11.59-13.18,8.14-22.17C80.85,1.9,72.79,0.38,71.28,2.06z"/>
</svg>
